X:1
T:Title
%%score { ( 1 3 ) | 2 }
L:1/8
M:4/4
K:G
V:1 treble nm="Grand Piano"
V:3 treble 
V:2 bass 
V:1
 z4 z2[Q:1/4=100] D>D | [B,G]>[B,G] [B,G]>[CA] [DB]>[DB] [DB]>[^DA] | %2
 [EG]>[EA] [EG]>[CE] [B,D]2 [B,D]>[B,D] | B>B B>A G>G F>G | E>A [^CGA]>[CGB] [DFA]2 D>D | %5
 G>G G>A B>B B>[^DA] | [EG]>[EA] [EG]>[CE] [B,D]3 D | E2 [Ge]2 [GB]2 [FA]2 | %8
[M:7/8] [B,DG]-[B,DG]-[B,DG]- [B,DG]- [B,DG]3 |[M:1/8] B |[M:4/4] d2 B2 d2 e2 | B2 d>d d2 d>d | %12
 B2 d2 B2 [DG]2 | [FA]6 z2 | [B,DG]>[B,DG] G>A B2 G>G | %15
[M:19/16] A>G[=FG]>[FG][Ee]/-[Ee]/-[Ee]/-[Ee]/-[Ee]/-[Ee]-<[Ee][Ge] | %16
[M:4/4] [Gd]2 [GB]2 [GB]2 [CFA]2 |[M:3/4] [B,DG]6 |] %18
V:2
 z4 z2 D,>D, | [G,,D,]>[G,,D,] [G,,D,]>[G,,D,] [G,,G,]>[G,,G,] [G,,G,]>[B,,G,] | %2
 [C,G,]>[C,G,] [C,G,]>[C,G,] [G,,G,]2 [G,,G,]>[G,,G,] | %3
 [G,D]>[G,D] [G,D]>[G,CD] [G,B,D]>[G,B,D] [D,CD]>[K:treble][G,B,D] | %4
 [A,^C]>[A,CG][K:bass] A,,>A,, D,2 [D,=C]>[D,C] | %5
 [G,B,D]>[G,B,D] [G,B,D]>[G,CD] [G,DG]>[G,DG] [G,DG]>[K:bass][B,,G,] | %6
 [C,G,]>[C,G,] [C,G,]>[C,G,] [G,,G,]3 [B,,G,] | [C,G,C]2 [C,G,]2 [D,D]2 [D,C]2 | %8
[M:7/8] [G,,G,]-[G,,G,]-[G,,G,]- [G,,G,]- [G,,G,]3 |[M:1/8][K:treble] [G,DG] | %10
[M:4/4] [G,B,G]2 [G,DG]2 [G,B,G]2 [G,CG]2 | [G,DG]2[K:bass] [D,D]>[D,D] [D,D]2 [D,D]>[D,D] | %12
 [G,DG]2 [B,DG]2 [G,DG]2[K:bass] B,,2 | D,2 F,>G, D,2 D,>D, | %14
 G,,>G,,[K:treble] [G,B,D]>[G,CD] [G,DG]2 [G,B,D]>[G,B,D] | %15
[M:19/16][K:bass] [F,CD]>[G,B,D][B,,G,]>[B,,G,][C,G,]/-[C,G,]/-[C,G,]/-[C,G,]/-[C,G,]/-[C,G,]-<[C,G,][C,C] | %16
[M:4/4] [D,B,]2 [D,D]2 [D,D]2 D,2 |[M:3/4] G,,6 |] %18
V:3
 x8 | x8 | x8 | x8 | x8 | x8 | x8 | x8 |[M:7/8] x7 |[M:1/8] x |[M:4/4] x8 | x8 | x8 | %13
 D2 D>D D2 [DGB]>[CDA] | x8 |[M:19/16] x19/2 |[M:4/4] x8 |[M:3/4] x6 |] %18

